!!!SOCIAL_FUNCTION:	corn-grinding songs
!!!PDT:	1957
!!!OTL: No_75_Corn-grinding_Song_(b).krn
!!!LING_GROUP: Keresan
!!!LANG: Tone
!!!REG: Southwest
**kern
*staff1
=1-
*clefF4
*k[f#c#g#d#]
*M2/4
8.G#\L
16A\Jk
8G#\L
8A\J
=2
8.G#\L
16F#\Jk
4E\
=3
12G#\L
12F#\
12G#\J
8.F#\L
16E\Jk
=4
4C#/
8BB/L
16GG#/Jk
16r
=5
16BB/LL
16BB/J
8GG#/J
4BB/
=6
*M3/4
8C#/L
8C#/J
8BB/L
8GG#/J
16BB/LL
16BB/J
8GG#/J
=7
*M2/4
8C#/L
8C#/J
8C#/L
8BB/J
=8
16C#/LL
16C#/J
8GG#/J
8.GG#/L
16C#/Jk
=9
16BB/LL
16BB/J
8GG#/J
8GG#/L
8GG#/J
=10
*M3/4
16BB/LL
16BB/J
8GG#/J
8GG#/L
16GG#/Jk
16r
4r
=11
8G#\L
8G#\J
8G#\L
8G#\J
8G#\L
8F#\J
=12
*M2/4
16E\LL
16E\J
8C#\J
[4C#/
=13
8C#/L]
8BB/J
8BB/L
16BB/L
16E/JJ
=14
*M3/4
2E\
8F#\L
8F#\J
=15
*M2/4
16E/LK
8.C#/J
12C#/L
12BB/
12D#/J
=16
8C#/L
8C#/J
4C#/
=17
*M3/4
8C#/L
8C#/J
8C#/L
8C#/J
4r
=18
8G#\L
8G#\J
4.G#\
8F#\
=19
*M2/4
16E/LK
8.C#/J
[4C#/
=20
8C#/L]
8BB/J
8.r
16BB/
=21
*M3/4
2E\
8F#\L
8F#\J
=22
*M2/4
16E/LK
8.C#/J
12C#/L
12BB/
12D#/J
=23
8C#/L
8C#/J
4C#/
=24
*M3/4
8C#/L
8C#/J
8C#/L
8C#/J
4r
=25
*M2/4
16C#/LL
16C#/J
8BB/J
8BB/L
8C#/J
=26
16BB/LL
16BB/J
8GG#/J
8GG#/L
8GG#/J
=27
*M3/4
16BB/LL
16BB/J
8GG#/J
8GG#/L
8GG#/J
4r
=28
*M2/4
8C#/L
16C#/L
16C#/JJ
8C#/L
8C#/J
=29
12C#/L
12BB/
12D#/J
4C#/
=30
16C#/LL
16BB/J
8BB/J
8BB/L
8C#/J
=31
16BB/LL
16BB/J
8GG#/J
8GG#/L
8GG#/J
=32
*M3/4
16BB/LL
16BB/J
8GG#/J
8GG#/L
8GG#/J
4r
=33
*M2/4
16BB/LL
16BB/J
8BB/J
8BB/L
8BB/J
=34
*M3/4
8BB/L
8BB/J
8BB/L
8BB/J
4r
=35
*M2/4
16BB/LL
16BB/J
8GG#/J
8GG#/L
8GG#/J
=36
*M3/4
16BB/LL
16BB/J
8GG#/J
8GG#/L
8GG#/J
4r
=37
*M2/4
16BB/LL
16BB/
16GG#/
16GG#/JJ
8GG#/L
8GG#/J
=38
16BB/LL
16BB/
16GG#/
16GG#/JJ
8GG#/L
8GG#/J
==
*-
